X:3195
T:Longdance
M:3/4
O:Sweden
R:Lngdans
Z:Richard Robinson 
%%TUNEURL: http://www.leeds.ac.uk/music/Info/RRTuneBk/gettune/000007b5.html
%%ID:000007b5
K:E mixolydian
e2Be Be|d2Ad Ad|c2AB ed|B3A GA ::\
B3d cA | e2dc B2 |
Bd cA ed |1 B3A GA :|2 B4 |: \
cd|\
e2 ag ab|a2 gf e2|d2 dcde |d2cAB2|e4:|
